X:10
T:The Devil Among the Tailors
T:The Devil's Dream
M:4/4
Q:270
L:1/8
K:A
%
%
P:- A -
"A" (aga)e aga(e | ag)a(e fe)cA | "Bm" dfBf dfBf | "(E)" dfag fece |
"A" (ag)ae (ag)a(e | ag)a(e fe)cA | "D" dfe(d "A"cB)AF |[1 "E" EFAB "A" A2 fg :| [2 "E" EFAB "A" A2 ed ||
P:- B -
"A" ceAe ceAe | ceag fedc | "Bm" dfBf dfBf | "(E)" dfag fedB |
"A" ceAe ceAe | ceag fedc | "D" dfe(d "A" cB)AF | [1 "E" EFAB "A" A2 ed :| [2 "E" EFAB "A" A2 z2 |]




%%topmargin 1.2 in
%%bottommargin 1.0 in
%%titlefont Times-Roman 24
%%composerspace 0
%%partsspace 0
%%writehistory 1
%%scale 0.7
%%maxshrink 1
%
%
